X:1
T:If Thou Shalt Confess
T:Bentley DeForest Ackley
T:If Thou Shalt Confess
T:Public Domain
T:Public Domain
C:Bentley DeForest Ackley
Z:Public Domain
%%score ( 1 2 ) ( 3 4 )
L:1/8
M:4/4
K:F
V:1 treble 
V:2 treble 
V:3 bass 
V:4 bass 
V:1
 (AB) | [Fc]2 [Fc]2 [Dc]2 [^Dc]2 | [Ec]3 [Ed] [Ec]2 [EB]2 | [FA]3 [FA] [EA]2 [GA]2 | [FA]6 [FA]2 | %5
w: 1.~O *|one in the wilds|of sin, So long|from God a- way;|Be- fore|
w: 2.~So *|ny roads a- cross|the marsh But lead|to vales of night;|This one,|
w: 3.~How *|ny paths at first|seem fair, That lead|to loss and pain!|This one|
 [FG]3 [FG] [FA]2 [F=B]2 | [EA]3 [EG] [EG]2 [EG]2 | [FG]3 [FG] [FA]2 [F=B]2 | [Ec]4- [Ec] || %9
w: thee lies an o-|pen path, Where thou|canst walk to- day.||
w: “the true and liv-|ing way,” Ends in|the fade- less light.|For *|
w: yields com- fort all|the way, The end|e- ter- nal gain.|~ *|
"^Refrain" [Ec][Ec][Fc] | [Gc]2 [EB]2 [EA]2 [EG]2 | [FA]4- [FA][FA][EB][Fc] | (F2 F2 F2) [Gd]2 | %13
w: ||||
w: if thou shalt|con- fess the Lord,|And * in thine heart|~ be- * lieve;|
w: ~ ~ ~|~ ~ ~ ~|~ * ~ ~ thine|heart ~ * ~|
 [Ge]4- [Ge]c[=Bd][_Be] | [Af]2 [FA]2 [EB]2 [Fc]2 | (F2 ^F2 [Gd])[G^f][^Ge][Gd] | %16
w: |||
w: Word * is sure, it|se- cure, ~ ~|“Thou shalt be saved,” ~ ~|
w: ~ * ~ ~ ~|~ ~ se- cure|~ ~ ~ “Thou shalt be|
 (A3- B [Ac])[EB][EA][CG] | [CF]6 |] %18
w: ||
w: shalt be saved.” * * *||
w: ||
V:2
 F2 | x8 | x8 | x8 | x8 | x8 | x8 | x8 | x5 || x3 | x8 | x8 | d6 x2 | x5 c x2 | x8 | d4- x4 | %16
w: lost||||||||||||||||
w: ma-||||||||||||His|stands||“Thou|
w: ma-||||||||||||~|~||saved,”|
 c4- x4 | x6 |] %18
w: ||
w: ||
w: ||
V:3
 (CG,) | [F,A,]2 [F,A,]2 [^F,C]2 [F,C]2 | [G,C]3 [G,C] [C,G,]2 [C,C]2 | %3
w: ~ *|~ ~ ~ ~|~ ~ ~ ~|
 [F,C]3 [F,C] [A,^C]2 [A,C]2 | [D,D]6 [D,D]2 | [G,=B,]3 [G,B,] [G,C]2 [G,D]2 | %6
w: ~ ~ ~ ~|~ ~|~ ~ ~ ~|
 [C,C]3 [C,C] [C,C]2 [^C,^A,]2 | [D,=B,]3 [D,B,] [G,B,]2 G,2 | [C,G,]4- [C,G,] || %9
w: ~ ~ ~ ~|~ ~ ~ ~|~ *|
 [C,G,][C,G,][C,A,] | [C,B,]2 [C,D]2 [C,C]2 [C,C]2 | F,2 C,2 [F,C][F,C][G,C][A,C] | %12
w: ~ ~ ~|~ ~ ~ ~|~ ~ ~ ~ ~ ~|
 B,2 _B,2 [G,=B,]2 [G,B,]2 | C,C,E,G, =CCCC | [F,C]2 [F,C]2 [G,C]2 [A,C]2 | B,2 [A,C]2 [G,B,] z3 | %16
w: in thine heart be-||||
 z FED C[C,D][C,C][C,B,] | [F,A,]6 |] %18
w: ||
V:4
 F,2 | x8 | x8 | x8 | x8 | x8 | x8 | x6 G,2 | x5 || x3 | x8 | C4- x4 | =B,2 =B,2 x4 | C4- =CCCC | %14
w: ~|||||||~||||And|lieve *||
 x8 | B,2 x6 | x8 | x6 |] %18
w: ||||

